!!!COM: Sergey (Sergeyevich) Prokofiev
!!!OTL: [T571_Pro-w24p31m3-1h23m1-18]
**kern	**dynam	**kern	**dynam	**kern	**dynam	**kern	**dynam
*grp:A	*grp:A	*grp:A	*grp:A	*grp:B	*grp:B	*grp:B	*grp:B
*part4	*part4	*part3	*part3	*part2	*part2	*part1	*part1
*staff4	*staff4	*staff3	*staff3	*staff2	*staff2	*staff1	*staff1
*I"Violoncello	*I"Violoncello	*I"Viola	*I"Viola	*I"Violin II	*I"Violin II	*I"Violin I	*I"Violin I
*I'Vc.	*	*I'Vla.	*	*I'Vln. II	*	*I'Vln. I	*
*clefF4	*	*clefC3	*	*clefG2	*	*clefG2	*
*k[b-]	*	*k[b-]	*	*k[b-]	*	*k[b-]	*
*F:	*	*F:	*	*F:	*	*F:	*
*M2/4	*	*M2/4	*	*M6/8	*	*M6/8	*
=305	=305	=305	=305	=305	=305	=305	=305
*Xtuplet	*	*Xtuplet	*	*	*	*	*
!	!LO:DY:t=%s dim.	!	!LO:DY:t=%s dim.	!	!LO:DY:t=%s dim.	!	!LO:DY:t=%s dim.
!	!LO:DY:ed=brack	!	!LO:DY:ed=brack	!	!LO:DY:ed=brack	!LO:TX:t=[[quarter-dot]=154]	!LO:DY:ed=brack
(16%3DL	f	4%3Bn	mp	(8dL	mp	(8BnL	mp
.	.	.	.	8Bn)	.	8d)	.
16%3EJ	.	.	.	.	.	.	.
.	.	.	.	8d~J	.	8f~J	.
[8%3G	.	.	.	8f~L	.	8bn~L	.
.	.	.	.	(8A	.	(8d	.
.	.	.	.	8dJ)	.	8fJ)	.
=306	=306	=306	=306	=306	=306	=306	=306
8%3G])	.	16%3c	.	(8cL	.	(8cL	.
.	.	.	.	8d)	.	8f	.
.	.	16%3r	.	.	.	.	.
.	.	.	.	[8ccJ	.	[8ccJ	.
8%3C	.	8%3r	.	8ccL]	.	8ccL])	.
.	.	.	.	8e~	.	8g~	.
.	.	.	.	8c~J	p	[8cJ	.
=307	=307	=307	=307	=307	=307	=307	=307
*	*	*	*	*Xtuplet	*	*	*
!	!	!	!	!LO:TX:t=P:problem: Position of Dynamic due to polymetric time signature.	!	!	!
4%3F	.	4%3r	.	4%3r	.	8cL]	.
.	.	.	.	.	.	(8Bn	.
.	.	.	.	.	.	8cJ	.
.	.	.	.	.	.	8dL)	.
.	.	.	.	.	.	(8d	.
.	.	.	.	.	.	8eJ	.
!!LO:REH:t=23
=308	=308	=308	=308	=308	=308	=308	=308
*M6/8	*	*M6/8	*	*M2/4	*	*	*
*grp:B	*grp:B	*grp:B	*grp:B	*Xtuplet	*	*	*
*	*	*	*	*grp:A	*grp:A	*	*
!	!	!	!	!	!LO:DY:t=%s espress.	!	!
8r	.	8r	.	(8%3.f	mf	8f)	p
(8GGvL	p	(8BnvL	p	.	.	4r	.
8AAJ	.	8cJ	.	.	.	.	.
8BBnL)	.	8dL)	.	.	.	4.r	.
(8BB	.	(8d	.	.	.	.	.
.	.	.	.	16%3dd)	.	.	.
8CJ	.	8eJ	.	.	.	.	.
=309	=309	=309	=309	=309	=309	=309	=309
8DL)	.	8fL)	.	(8%3cc	.	8r	.
(8D#X	.	(8f#X	.	.	.	(8eeevL	pp
8F#XJ	.	8aJ	.	.	.	8dddJ	.
8EL	.	8gL	.	16%3aL	.	8cccL	.
8Dn	.	8fn	.	.	.	8bb-X	.
.	.	.	.	16%3eJ)	.	.	.
8CJ)	.	8eJ)	.	.	.	8aaJ)	.
=310	=310	=310	=310	=310	=310	=310	=310
(8BB-L	.	(8dL	.	16%3f~L	.	(8bb-L	.
8C)	.	8e)	.	.	.	8gg)	.
.	.	.	.	16%3g~J	.	.	.
8AA~J	.	8c~J	.	.	.	8ccc~J	.
(8GGL	.	(8B-L	.	[8%3a	.	(8ffL	.
8AA	.	8c	.	.	.	8ee	.
8FFJ	.	8AJ	.	.	.	8ffJ	.
=311	=311	=311	=311	=311	=311	=311	=311
8EEL)	.	8GL)	.	16%3a]	.	8ggL)	.
(8FF	.	(8A	.	.	.	(8ff	.
.	.	.	.	16%3r	.	.	.
8CCJ	.	8EJ	.	.	.	8ggJ	.
8DDL	.	8FL	.	8%3f~	.	8aaL	.
8EE	.	8G	.	.	.	8gg	.
8FFJ)	.	8AJ)	.	.	.	8ffJ)	.
!!linebreak:original
=312	=312	=312	=312	=312	=312	=312	=312
(8GGL	.	(8B-L	.	(8%3dd	.	(8eeL	.
8AA	.	8c	.	.	.	8ff	.
8BB-J	.	8dJ	.	.	.	8ggJ	.
!	!	!	!	!	!	!LO:TX:t=4	!
8BBnL)	.	8d#XL)	.	8%3cc)	.	8cccL)	.
(8C	.	(8e	.	.	.	8r	.
!	!	!	!	!	!	!LO:TX:t=3	!
8E-XJ	.	8g-XJ	.	.	.	(8ff#XJ	.
=313	=313	=313	=313	=313	=313	=313	=313
/8DL	.	8fL	.	(8%3g	.	8bbnL	.
8En)	.	8gn)	.	.	.	8ccc)	.
!	!	!	!	!	!	!LO:TX:t=1	!
(8CJ	.	(8eJ	.	.	.	(8ggJ	.
!	!	!LO:TX:t=1	!	!	!	!LO:TX:t=4	!
8BBnL	.	8d#XL	.	16%3aL	.	8dddL	.
!	!	!LO:TX:t=2	!	!	!	!	!
8C	.	8e	.	.	.	8ccc	.
.	.	.	.	16%3eJ)	.	.	.
!	!	!LO:TX:t=○	!	!	!	!LO:TX:t=4	!
8BB-XJ)	.	8dnJ)	.	.	.	8ggJ)	.
=314	=314	=314	=314	=314	=314	=314	=314
(8AAL	.	(8c#XL	.	16%3f~L	.	(8ffL	.
8BB-	.	8d	.	.	.	8dd	.
.	.	.	.	16%3g~J	.	.	.
8GGJ	.	8B-J	.	.	.	8eeJ	.
8FFL)	.	8AL)	.	([8%3a	.	8ccL)	.
(8GG	.	(8B-	.	.	.	(8bn	.
8EEJ	.	8GJ	.	.	.	8ccJ	.
=315	=315	=315	=315	=315	=315	=315	=315
!	!	!	!	!	!	!LO:TX:t=1	!
8DDL)	.	8FL)	.	16%3aL]	.	8f)	.
(8FF	.	(8A	.	.	.	4r	.
.	.	.	.	16%3b-J)	.	.	.
8GGJ	.	8B-J	.	.	.	.	.
8AAL	.	8cL	.	[8%3cc	.	8r	.
!	!	!	!	!	!	!LO:TX:t=○	!
8C	.	8e	.	.	.	(8avL	.
8DJ	.	8fJ	.	.	.	8b-J	.
=316	=316	=316	=316	=316	=316	=316	=316
8EL)	.	8gL)	.	16%3ccL]	.	8ccL)	.
(8E	.	(8g	.	.	.	(8gg	.
.	.	.	.	16%3dd-X~J	.	.	.
8FJ	.	8a-XJ	.	.	.	8ffJ	.
8GL	.	8b-L	.	(16%3.ee-XL	.	8ee-XL)	.
8F#X	.	8an	.	.	.	(8ee-	.
8GJ)	.	8b-J)	.	.	.	8ddJi)	.
.	.	.	.	32%3ffJk)	.	.	.
=317	=317	=317	=317	=317	=317	=317	=317
(8A-XL	mp	(8ccL	mp	8%3ee-X	.	8ccL	.
8B-)	.	8dd-X)	.	.	.	8r	.
8G~J	.	8b-~J	.	.	.	(8ggvJ	mp
(8FL	.	(8a-XL	.	8%3ee-~	.	8aa-XL	.
8G	.	8b-	.	.	.	8gg)	.
8E-XJ)	.	8gJ)	.	.	.	(8bb-XJ	.
=318	=318	=318	=318	=318	=318	=318	=318
(8D-XL	.	(8fL	.	(8%3aa-X	f	8cccL	.
8E-X)	.	8g)	.	.	.	8bb-X	.
8C~J	.	8e-X~J	.	.	.	8ddd-XJ)	.
(8BB-L	<	(8d-XL	<	8%3ccc)	<	(8eee-XL	<
8C	.	8e-	.	.	.	8ddd-)	.
8AA-XJ)	.	8cJ)	.	.	.	8fff~J	.
!!linebreak:original
=319	=319	=319	=319	=319	=319	=319	=319
(8GGL	.	(8B-L	.	8%3gg~	.	(8gggL	.
8AA-X)	.	8c)	.	.	.	8eee-X	.
8FF~J	.	8A-X~J	.	.	.	8fffJ)	.
*	*	*	*	*	*	*8va	*
8EE-X~L	.	8G~L	.	(16%3aa-XL	.	(8gggL	.
8FF~	.	8A-~	.	.	.	8aaa-X)	.
.	.	.	.	16%3bb-J)	.	.	.
8DD-X~J	[	8F~J	[	.	[	8bbb-X~J	[
=320	=320	=320	=320	=320	=320	=320	=320
8DDn^L	f	8F#X^L	f	8%3bbn	ff	8bbbn^L	f
8FF#X~	.	8Bn~	.	.	.	8fff#X~	.
8BBn~J	.	/8d~J	.	.	.	8ddd~J	.
8D`	.	8f#X`	.	[8%3bn	.	8bbn`	.
*	*	*	*	*	*	*X8va	*
8r	.	8r	.	.	.	4r	.
(8DvL	.	(8duL	.	.	.	.	.
=321	=321	=321	=321	=321	=321	=321	=321
8F#X)	.	8f#X)	.	16%3b]	.	4%3r	.
8Bn~J	.	8bn~J	.	.	.	.	.
.	.	.	.	16%3r	.	.	.
(8E#XL	.	(8e#XL	.	.	.	.	.
!	!	!	!	!	!LO:HP:t= 	!	!
!	!	!	!	!	!LO:DY:t=%s dim.	!	!
8G#X)	.	8g#X)	.	8%3cc#X	f >	.	.
8c#X~J	.	8cc#X~J	.	.	.	.	.
(8F#XL	>	(8f#XL	>	.	.	.	.
=322	=322	=322	=322	=322	=322	=322	=322
8A)	.	8a)	.	(16%3ddL	.	4%3r	.
8c#X~J	.	8cc#X~J	.	.	.	.	.
.	.	.	.	16%3eeJ	.	.	.
8r	.	8r	.	.	.	.	.
8Bn~vL	.	8bn~vL	.	[8%3ccn	.	.	.
8G~	.	8g~	.	.	.	.	.
8E~J	.	8e~J	.	.	.	.	.
=323	=323	=23	=323	=323	=323	=323	=323
8BB-X~L	.	8B-X~L	.	16%3ccL])	.	8r	.
8GG~	.	8G~	.	.	.	(8gL	p
.	.	.	.	(16%3dd	.	.	.
8EE~J	.	8E~J	.	.	.	8fJ	.
8CC~	.	8C~	.	16%3gg	.	8eL	.
4r	.	4r	.	.	.	8d	.
.	.	.	.	16%3eeJ)	.	.	.
.	.	.	.	.	.	8cJ)	.
=324	=324	=324	=324	=324	=324	=324	=324
*	*	*	*	*tuplet	*	*	*
!	!	!	!	!LO:TX:t=P:problem: These Tuplets need a 3 beneath them, as this staff is in 2/4.	!	!	!
8Bn~L	p	8d~L	p	8ff~L	p	8dd~L	.
(8G	.	(8e	.	(8ccc	.	(8cc	.
8BJ)	.	8dJ)	.	8ffJ)	.	8ddJ)	.
(8B-X~L	.	(8d-X~L	.	(8gg~L	.	(8ee~L	.
8G-X	.	8dn	.	8ccc	.	8cc	.
8B-J)	.	8d-XJ)	.	8ggJ)	.	8eeJ)	.
=325	=325	=325	=325	=325	=325	=325	=325
*	*	*	*	*Xtuplet	*	*	*
4.A	.	8c~L	.	8%3aa~	.	8ff~L	.
.	.	8F~	.	.	.	8cc~	.
.	.	8C~J	.	.	.	8a~J	.
4.r	.	8F~	.	8%3r	.	8f~	.
.	.	4r	.	.	.	4r	.
=	=	=	=	=	=	=	=
*-	*-	*-	*-	*-	*-	*-	*-
!!!system-decoration: [(s1,s2,s3,s4)]
!!!RDF**dynam: > = dim.
!!!RDF**kern: i = editorial accidental
!!!RDF**kern: j = editorial accidental, bracket
!!!RDF**kern: Z = editorial accidental, parentheses
!!!EED: Daniel Wright
!!!EEV: 2021/08/19
!!!EED2: Gabriella Vici
!!!EEV2: 2022/02/17
